img/payments/QIWI.svg

<svg width="108" height="108" viewBox="0 0 108 108" fill="none" xmlns="http://www.w3.org/2000/svg">
<path d="M2 54C2 25.2812 25.2812 2 54 2C82.7188 2 106 25.2812 106 54C106 82.7188 82.7188 106 54 106C25.2812 106 2 82.7188 2 54Z" fill="#FD8C00"/>
<path d="M77.4522 67.5318C78.6469 67.9915 79.1066 69.7815 79.1979 70.5623C79.3821 71.9869 78.9695 72.5379 78.5099 72.5379C78.0503 72.5379 77.4065 71.9869 76.7185 70.8849C76.029 69.7815 75.7535 68.5425 76.1218 67.8987C76.3502 67.4847 76.8541 67.302 77.4522 67.5318ZM70.4719 72.722C71.2071 72.722 72.0336 73.0432 72.7687 73.6856C74.1919 74.8803 74.6058 76.2578 73.8707 77.2685C73.4567 77.7738 72.7687 78.095 71.9879 78.095C71.2071 78.095 70.3806 77.8195 69.8296 77.3141C68.5434 76.2122 68.1766 74.3736 69.0017 73.3644C69.3243 72.9504 69.8296 72.722 70.4719 72.722ZM54.3988 85.9945C36.9454 85.9945 22.8008 71.8484 22.8008 54.3964C22.8008 36.9444 36.9468 22.7998 54.3974 22.7998C71.8494 22.7998 85.9955 36.9458 85.9955 54.3964C85.9955 60.3203 84.3425 65.8788 81.5418 70.6094C81.449 70.7464 81.2192 70.7008 81.1735 70.5166C80.0715 62.7556 75.341 58.4832 68.4521 57.1985C67.854 57.1057 67.7626 56.7389 68.5434 56.6475C70.6561 56.4634 73.6409 56.5091 75.2025 56.7846C75.2939 56.0037 75.341 55.1772 75.341 54.3507C75.341 42.8227 65.9712 33.4529 54.4431 33.4529C42.9164 33.4529 33.5466 42.8227 33.5466 54.3507C33.5466 65.8788 42.9164 75.2486 54.4445 75.2486H55.408C55.0807 73.384 54.942 71.4912 54.9941 69.5988C55.0412 68.3126 55.3167 68.1285 55.8677 69.1391C58.7611 74.1452 62.895 78.646 70.9772 80.4374C77.5906 81.9077 84.204 83.6064 91.3227 92.6535C91.9651 93.4344 91.0015 94.2608 90.2664 93.6185C83.0107 87.1878 76.3973 85.0752 70.3806 85.0752C63.6287 85.1223 59.038 85.9945 54.3988 85.9945Z" fill="white"/>
<path d="M54 104.775C25.9577 104.775 3.225 82.0423 3.225 54H0.775C0.775 83.3954 24.6046 107.225 54 107.225V104.775ZM104.775 54C104.775 82.0423 82.0423 104.775 54 104.775V107.225C83.3954 107.225 107.225 83.3954 107.225 54H104.775ZM54 3.225C82.0423 3.225 104.775 25.9577 104.775 54H107.225C107.225 24.6046 83.3954 0.775 54 0.775V3.225ZM54 0.775C24.6046 0.775 0.775 24.6046 0.775 54H3.225C3.225 25.9577 25.9577 3.225 54 3.225V0.775Z" fill="white"/>
</svg>

<svg width="108" height="108" fill="none" xmlns="http://www.w3.org/2000/svg"><path d="M2 54C2 25.281 25.281 2 54 2s52 23.281 52 52-23.281 52-52 52S2 82.719 2 54z" fill="#FD8C00"/><path d="M77.452 67.532c1.195.46 1.655 2.25 1.746 3.03.184 1.425-.228 1.976-.688 1.976-.46 0-1.104-.551-1.791-1.653-.69-1.104-.965-2.343-.597-2.986.228-.414.732-.597 1.33-.367zm-6.98 5.19c.735 0 1.562.321 2.297.964 1.423 1.194 1.837 2.572 1.102 3.582-.414.506-1.102.827-1.883.827-.78 0-1.607-.275-2.158-.78-1.287-1.103-1.653-2.941-.828-3.95.322-.415.828-.643 1.47-.643zM54.399 85.995c-17.454 0-31.598-14.147-31.598-31.599C22.8 36.944 36.947 22.8 54.397 22.8c17.452 0 31.599 14.146 31.599 31.596a31.792 31.792 0 01-4.454 16.213c-.093.137-.323.092-.368-.092-1.103-7.761-5.833-12.034-12.722-13.318-.598-.093-.69-.46.091-.551 2.113-.185 5.098-.139 6.66.137.09-.781.138-1.608.138-2.434 0-11.528-9.37-20.898-20.898-20.898-11.527 0-20.896 9.37-20.896 20.898s9.37 20.898 20.898 20.898h.963a28.19 28.19 0 01-.414-5.65c.047-1.286.323-1.47.874-.46 2.893 5.006 7.027 9.507 15.11 11.298 6.613 1.47 13.226 3.17 20.345 12.216.642.781-.322 1.608-1.057.965-7.255-6.43-13.869-8.543-19.885-8.543-6.752.047-11.343.92-15.982.92z" fill="#fff"/><path d="M54 104.775C25.958 104.775 3.225 82.042 3.225 54H.775c0 29.395 23.83 53.225 53.225 53.225v-2.45zM104.775 54c0 28.042-22.733 50.775-50.775 50.775v2.45c29.395 0 53.225-23.83 53.225-53.225h-2.45zM54 3.225c28.042 0 50.775 22.733 50.775 50.775h2.45C107.225 24.605 83.395.775 54 .775v2.45zm0-2.45C24.605.775.775 24.605.775 54h2.45C3.225 25.958 25.958 3.225 54 3.225V.775z" fill="#fff"/></svg>
